.local/share/icons/Gruvbox-Plus-Dark/actions/symbolic/format-text-underline-symbolic.svg

<svg xmlns="http://www.w3.org/2000/svg" width="16" height="16" version="1.1">
 <path style="fill:#ebdbb2" d="M 13,5 C 13,3.37 11.68,2 10,2 H 4 V 4 H 10 C 10.43,4 11,4.61 11,5 V 6 H 6 C 5.08,6 4.26,6.38 3.75,6.97 3.24,7.55 3,8.28 3,9 3,9.72 3.27,10.45 3.78,11.03 4.29,11.61 5.09,12 6,12 H 13 M 6,8 H 11 V 10 H 6 C 5.6,10 5.43,9.89 5.28,9.72 5.13,9.55 5,9.28 5,9 5,8.72 5.1,8.45 5.25,8.28 5.4,8.12 5.58,8 6,8 Z"/>
 <path style="fill:#ebdbb2" d="M 2,13 V 15 H 14 V 13 Z"/>
</svg>

<svg width="16" height="16" version="1.1" xmlns="http://www.w3.org/2000/svg">
  <defs>
    <style id="current-color-scheme" type="text/css">.ColorScheme-Text { color:#ebdbb2; } .ColorScheme-Highlight { color:#458588; }</style>
  </defs>
  <path class="ColorScheme-Text" d="m2 13h12v2h-12zm2-11v2h6s1 0 1 1v1h-5c-3 0-3 3-3 3s0 3 3 3h7v-7c0-3-3-3-3-3zm2 6h5v2h-5c-1 0-1-1-1-1s0-1 1-1z" fill="currentColor"/>
</svg>
